lib/flags/tg-togo.svg

<svg xmlns="http://www.w3.org/2000/svg" fill="none" aria-hidden="true" viewBox="0 0 42 30"><g id="Country=TG - Togo, Size=sm (36x24)" filter="url(#filter0_dd_91_24788)"><g clip-path="url(#clip0_91_24788)"><g id="flag"><mask id="mask0_91_24788" width="36" height="24" x="3" y="2" maskUnits="userSpaceOnUse" style="mask-type:alpha"><rect id="mask" width="36" height="24" x="3" y="2" fill="white"/></mask><g mask="url(#mask0_91_24788)"><g id="contents"><path id="middle" fill="#5EAA22" stroke="#F7FCFF" stroke-width="2" d="M3 1H2V2V26V27H3H39H40V26V2V1H39H3Z"/><path id="stripe" fill="#FECA00" fill-rule="evenodd" d="M3 8V12H39V8H3Z" clip-rule="evenodd"/><path id="stripe_2" fill="#FECA00" fill-rule="evenodd" d="M3 16V20H39V16H3Z" clip-rule="evenodd"/><rect id="Rectangle 82" width="18" height="14" x="3" y="2" fill="#F50101"/><path id="Star 5" fill="#F7FCFF" fill-rule="evenodd" d="M12.2812 12.1442L8.09701 14.4457L9.72145 10.5821L6.375 7.97924H10.4788L12.2812 4.12988L13.6568 7.97924H17.7112L14.8636 10.5821L16.265 14.2562L12.2812 12.1442Z" clip-rule="evenodd"/></g></g></g></g></g><defs><filter id="filter0_dd_91_24788" width="42" height="30" x="0" y="0" color-interpolation-filters="sRGB" filterUnits="userSpaceOnUse"><feFlood flood-opacity="0" result="BackgroundImageFix"/><feColorMatrix in="SourceAlpha" result="hardAlpha" values="0 0 0 0 0 0 0 0 0 0 0 0 0 0 0 0 0 0 127 0"/><feOffset dy="1"/><feGaussianBlur stdDeviation="1"/><feColorMatrix values="0 0 0 0 0.0627451 0 0 0 0 0.0941176 0 0 0 0 0.156863 0 0 0 0.06 0"/><feBlend in2="BackgroundImageFix" result="effect1_dropShadow_91_24788"/><feColorMatrix in="SourceAlpha" result="hardAlpha" values="0 0 0 0 0 0 0 0 0 0 0 0 0 0 0 0 0 0 127 0"/><feOffset dy="1"/><feGaussianBlur stdDeviation="1.5"/><feColorMatrix values="0 0 0 0 0.0627451 0 0 0 0 0.0941176 0 0 0 0 0.156863 0 0 0 0.1 0"/><feBlend in2="effect1_dropShadow_91_24788" result="effect2_dropShadow_91_24788"/><feBlend in="SourceGraphic" in2="effect2_dropShadow_91_24788" result="shape"/></filter><clipPath id="clip0_91_24788"><rect width="36" height="24" x="3" y="2" fill="white" rx="2"/></clipPath></defs></svg>

<svg xmlns="http://www.w3.org/2000/svg" fill="none" aria-hidden="true" viewBox="0 0 42 30"><g filter="url(#a)"><g clip-path="url(#b)"><mask id="c" width="36" height="24" x="3" y="2" maskUnits="userSpaceOnUse" style="mask-type:alpha"><path fill="#fff" d="M3 2h36v24H3z"/></mask><g mask="url(#c)"><path fill="#5EAA22" stroke="#F7FCFF" stroke-width="2" d="M3 1H2v26h38V1H3Z"/><path fill="#FECA00" fill-rule="evenodd" d="M3 8v4h36V8H3Zm0 8v4h36v-4H3Z" clip-rule="evenodd"/><path fill="#F50101" d="M3 2h18v14H3z"/><path fill="#F7FCFF" fill-rule="evenodd" d="m12.281 12.144-4.184 2.302 1.624-3.864L6.375 7.98h4.104l1.802-3.85 1.376 3.85h4.054l-2.847 2.603 1.401 3.674-3.984-2.112Z" clip-rule="evenodd"/></g></g></g><defs><clipPath id="b"><rect width="36" height="24" x="3" y="2" fill="#fff" rx="2"/></clipPath><filter id="a" width="42" height="30" x="0" y="0" color-interpolation-filters="sRGB" filterUnits="userSpaceOnUse"><feFlood flood-opacity="0" result="BackgroundImageFix"/><feColorMatrix in="SourceAlpha" result="hardAlpha" values="0 0 0 0 0 0 0 0 0 0 0 0 0 0 0 0 0 0 127 0"/><feOffset dy="1"/><feGaussianBlur stdDeviation="1"/><feColorMatrix values="0 0 0 0 0.0627451 0 0 0 0 0.0941176 0 0 0 0 0.156863 0 0 0 0.06 0"/><feBlend in2="BackgroundImageFix" result="effect1_dropShadow_91_24788"/><feColorMatrix in="SourceAlpha" result="hardAlpha" values="0 0 0 0 0 0 0 0 0 0 0 0 0 0 0 0 0 0 127 0"/><feOffset dy="1"/><feGaussianBlur stdDeviation="1.5"/><feColorMatrix values="0 0 0 0 0.0627451 0 0 0 0 0.0941176 0 0 0 0 0.156863 0 0 0 0.1 0"/><feBlend in2="effect1_dropShadow_91_24788" result="effect2_dropShadow_91_24788"/><feBlend in="SourceGraphic" in2="effect2_dropShadow_91_24788" result="shape"/></filter></defs></svg>
